src/22/actions/format-font-size-more.svg

<svg xmlns="http://www.w3.org/2000/svg" viewBox="0 0 22 22">
  <defs id="defs3051">
    <style type="text/css" id="current-color-scheme">
      .ColorScheme-Text {
        color:#5d656b;
      }
      </style>
  </defs>
 <path 
    style="fill:currentColor;fill-opacity:1;stroke:none" 
    d="M 8.2167969 3 L 3 17 L 4.6875 17 L 6.3554688 12.570312 L 11.917969 12.570312 L 12.066406 13 L 13.732422 13 L 10.210938 3 L 8.2167969 3 z M 9.2324219 4.6113281 L 11.361328 11.285156 L 6.8730469 11.285156 L 9.2324219 4.6113281 z M 15.5 12.792969 L 15.292969 13 L 12 16.292969 L 12.707031 17 L 15 14.707031 L 15 19 L 16 19 L 16 14.707031 L 18.292969 17 L 19 16.292969 L 15.707031 13 L 15.5 12.792969 z "
    class="ColorScheme-Text"
    />  
</svg>

<svg xmlns="http://www.w3.org/2000/svg" viewBox="0 0 22 22"><path d="M8.217 3L3 17h1.688l1.667-4.43h5.563l.148.43h1.666L10.211 3H8.217zm1.015 1.611l2.13 6.674H6.872l2.36-6.674zm6.268 8.182l-.207.207L12 16.293l.707.707L15 14.707V19h1v-4.293L18.293 17l.707-.707L15.707 13l-.207-.207z" fill="currentColor" color="#5d656b"/></svg>
